X: 6
T: Urząd zbawienia
C: Anonim
%%abc-version 2.0
%%abcx-abcm2ps-target-version 5.9.1 (29 Sep 2008)
%%abc-creator hum2abc beta
%%abcx-conversion-date 2021/10/04 07:56:47
%%abc-edited-by Marcin Konik
%%abc-edited-by Leszek Kubiak
%%abcx-initial-encoding-date 2015-03-14
%%humdrum-veritas 3982382324
%%humdrum-veritas-data 3546854592
%%linebreak <none>
%%barnumbers 0
L: 1/4
N: Derived from pl-stab--st-a--006_anonim--urzad-zbawienia.krn
K: F clef=C1
C2E2F2G2 [|] 
A2G4F2 [|] 
G4E2E2 [|] 
F4E4 [|] 
D2C4B,2 [|] 
C4E2E2 [|] 
F4D4 [|] 
E2G4F2 [|] 
G4A2G2 [|] 
F4E4 [|] 
F2>E2D2C4 [|] 
B,2C8 |]  


